/* XPM */
static char *d_anim2[] = {
/* columns rows colors chars-per-pixel */
"64 64 19 1 ",
"  c #000000",
". c #455C1D",
"X c #526B24",
"o c #5A7829",
"O c #627D28",
"+ c #464646",
"@ c #5C565C",
"# c #5E595E",
"$ c gray49",
"% c #7C911C",
"& c #818C8C",
"* c #999699",
"= c #909999",
"- c #A3A2A3",
"; c #B8A5B8",
": c #ABBABA",
"> c gray70",
", c #B4B4B4",
"< c gray79",
/* pixels */
"OOXXOOOOOOOXOOOOOOOOOOXOOOOOOOOO%XOOOOOOOOO;OX%OO.O......X..%OOX",
"OOXOOOOOOOOXOO;OOOOOOOO%OOOOOOXX%OOOOOOOOO;%;XOOOOOO.......O%OO%",
"OOXXXOOOOOOXO;%;OOOOOOOXXOOOOOXOOOOOOOOOOOO;OXOOOOOOOOOOOXOOOO%%",
"OOOOXOOOOOOOXO;OOOOOOOOOXOOOOOXOOOOOOOOOOOOOOOOOOOOOOOOOOOOOOX%O",
"OOOO%OOOOOOOXO=OXOOOO=OXOOOO=O=O=OO=OOOOO=OXOXXXOOOOOOXOOOOOXXOO",
"OO=O%O=OXOOXOO=OXOOOO=XXOO=O=O=OXO==O=OOOOOXOOOXOOOOOXXOOOOXXOOO",
"OO=OO==OXOOXOOOOXOOO=XXO=OO=OO+++XX=OOOO=OOOXOXOXOOOO%OOOOOXOOOO",
"X==OO==OXOOXX==OXX=OOXOO=XO=++++++XOOOXO=O=OXOXXXXOOOOOOOOOXOOOO",
"X==XO=OOXOOOX==OOXOO=XOOOX+++++++++OOOXO==OXXOOXOOOXOOOOOOOOOOOO",
"X=XXO=OOXXOOXX=OOOX=O=O+++++++++++++++++++OXO==OXOOXO=O=OOOOOXOO",
"X=XO=O=OOXO==XXXO==O=++++++++++++++++++++++++OOOXOOXO=O=OOX==XXO",
"O=OOOOO=OOX===OXX==O++++++++++++++++++++++++++==OX=O==OXXOX=OOXX",
"OOOXX=O=OOO===OOX=O+++++++++++++++++++++++++++++OO=O===OXOO=O==X",
"=%OX=O==OOO=OXOOXX+++++++++++++++++   +++++++++++=oO===OXXO=O==X",
"=%OO=O==OXOO=X=OO=+++++++++++++          ++++++++=o=====OXOOo==X",
"=O=OO=O=XOO%O=XOOO+++++++++               ++++++++O=======%Oo==O",
"===O=%OXXOX%=XXOOX+++++++                  ++++++++O======%=O=%O",
"======OOOXXO=O==O+++++++                     +++++++%=====O==O%=",
"======OO=X===O===++++++                       +++++++========OO=",
"=====XO%=====O==++++++                         +++++++==========",
"=====XO%====%O==++++++                          ++++++=========#",
"=====OO====O=O=++++++                           +++++++=========",
"=====%O====O=O+++++++                            ++++++=========",
"=====%O======++++++++                            +++++++========",
"=====O=======+++++++                              ++++++========",
"====#O======++++++++                               +++++========",
"====#=======++++++++                               +++++========",
"===##=======++++++++                               +++++--------",
"--##--------+++++++                                 +++++<<<<<<-",
"-<#<<<<<<<<<+++++++                                 +++++<<<<<<-",
"-##<<<<<<<<+++++++                                  +++++<<<<<<-",
"-##<<<<<<<<++++++                                   +++++---<<<-",
"-##<-------++++++                                    ++++>>-<<<-",
"##<<-><<<<>++++++                                    ++++<>-<<##",
"##<<-><<<<<+++++                                     ++++<>-<###",
"##<<-><<<<<+++++                                      +++<<-<##-",
"#<<<-><<<<<+++++                                      +++<<-###-",
"#<<<-><<<<<++++                                       ++++<###<-",
"#<<<-><<<<<++++                                        +++<###<-",
"-<<<->>>>>>++++                                        +++####<-",
"-<<<-------++++                                        +++###<<-",
"-<<<<<<<<<<++++                                       ++++##<<<-",
"-<<<<<<<<<<++++                                       ++++##<<<-",
"-<<<<<<<<<<++++                                        +++##----",
"-----------+++                                         +++##<<<-",
"-<<<<<<<<<<<++                                         +++##<<<-",
"-<<<<<<<<<<+++                                         +++##<<<-",
"-<<<<<<<<<<+++                                         +++##<<<-",
"-<<<-------++                                          +++##<<<-",
"-<<<-><<<<<++                                          +++##<<<-",
"-<<<-><<<<+++                                          ++++#<<<-",
"-<<<-#<<<<+++                                           +++#<<<-",
"-<<<-#<<<+++                                            ++++<<<-",
"-<<<-#<<<+++                                            +++++<<-",
"-<<<-#>>>+++                                            +++++<<-",
"-<<<##---+++                                             ++++<<-",
"-<<###<<<+++                                             ++++<<-",
"-<###<<<+++        ,,,,,,,,                               +++<<-",
"-<###<<<+++    ,,,,,,,,,,,,,@@@@                          +++---",
"--####--+++  ,,,,,,,,,,::,,,,@@@@@                        +++<<-",
"-######<++  ,,,,,,,,,,,,::,,,@@@@  ,,,**,,, $$$     &      ++<<-",
"-#######++ ,,,,,,,,,,,,,,:,,,@@@@  ,,,,,,,,,$$$$&&$$$$     ++<<-",
"########+  ,<,,,,,,,,,,,,:,,,     ,,,,,,,,,,,,$$$$$$$@@@@  ++<<-",
"########+ +,>,,,,,,,,,,,,::,,@@@@ ,,,,,,,,,,,,$$$$$$$$@@@  ++<<-"
};
