/* XPM */
static char *d_anim1[] = {
/* columns rows colors chars-per-pixel */
"64 64 33 1 ",
"  c #000000",
". c #455C1D",
"X c #5E4136",
"o c #526B24",
"O c #5A7829",
"+ c #627D28",
"@ c #464646",
"# c #5C565C",
"$ c #5E595E",
"% c gray49",
"& c #C74B1E",
"* c #CE6137",
"= c #E6622E",
"- c #E16E39",
"; c #E66E38",
": c #E0713B",
"> c #7C911C",
", c #EF8E3A",
"< c #F29838",
"1 c #CCA251",
"2 c #C4B256",
"3 c #D7DE52",
"4 c #818C8C",
"5 c #999699",
"6 c #9C959C",
"7 c #909999",
"8 c #A3A2A3",
"9 c #ADAAAD",
"0 c #B8A5B8",
"q c #ABBABA",
"w c gray70",
"e c #B4B4B4",
"r c gray79",
/* pixels */
"++oo+++++++o++++++++++o+++++++++>o+++++++++0+o>++.+......o..>++o",
"++o++++++++o++0++++++++>++++++oo>+++++++++0>0o++++++.......+>++>",
"++ooo++++++o+0>0+++++++oo+++++o++++++++++++0+o+++++++++++o++++>>",
"++++o+++++++o+0+++++++++o+++++o++++++++++++++++++++++++++++++o>+",
"++++>+++++++o+7+o++++7+o++++7+7+7++7+++++7+o+ooo++++++o+++++oo++",
"++7+>+7+o++o++7+o++++7oo++7+7+7+o+77+7+++++o+++o+++++oo++++oo+++",
"++7++77+o++o++++o+++7oo+7++7++@@@oo7++++7+++o+o+o++++>+++++o++++",
"o77++77+o++oo77+oo7++o++7o+7@@@@@@o+++o+7+7+o+oooo+++++++++o++++",
"o77o+7++o+++o77++o++7o+++o@@@@@@@@@+++o+77+oo++o+++o++++++++++++",
"o7oo+7++oo++oo7+++o7+7+@2@@@@@@@@@@@@@@@@@+o+77+o++o+7+7+++++o++",
"o7o+7+7++o+77ooo+77+7@@<2@@@@@@@@@@@@@@@@@@@@+++o++o+7+7++o77oo+",
"+7+++++ee+o777+oo77+@@@2@@@@@@@@@@@@@@@@@@@@@@77+o7+77+oo+o7++oo",
"+++o44eee++777++o7<@@@@@2@@@@@@@@@@@@@@@@@@<<@@@++7+777+o++7+77o",
"7>+o7+4ee+<7+o++oo@<<@@@@@@@@@@@@@@@@@@@@@22@@@@@7O+777+oo+7+77o",
"7>++7+74eo<<7oe447@@@@@@@@@@@@@@@@@@@@@@@22@@@@@@7O77777+o++O77o",
"7+7++7+7o++<<7ee4+@@@@@%%@@@@@@@@@@@@@@@2@@%@@%%@@+7777777>+O77+",
"777+7>+oo+o><<oeeo@@@@99%@@2@@@@@@@@@@@@@@@%%%6%@@@+777777>7+7>+",
"777777+++oo+7<<7+@@@@@%9%%%2<@@@@          %%6%@@@2@>77777+77+>7",
"777777++7o777<<27@2@@@%%%%%22               %%@@<2@@@77777777++7",
"77777o+>77777+<<<2@2@@@@%%%%2                 @@<@@@@@7777777777",
"77777o+>77779444@@@@@@@ %%%%<                  @2@@@@@779977777$",
"77777++777799444@@@@@@     %           <      2<@@@@@%%999777277",
"77777>+777799444@@@@@<                <<        @@@@@@%%%%772272",
"77777>+777744444@@@@ <<<              <         @44@@@%%%77<7777",
"77777+772274444@@@@@   <<      2      <          44@@@@@77<<7777",
"7777$+777222@@@@@@@    222    3                  44@@@@@22277777",
"7777$77777<22@@@@@@ 4444 2     32  X      2       @@@@@277777777",
"777$$77777772@@@@@  494444       X    323          @@@@@88888888",
"88$$888888888@@@ee 99944444     ,,2:2 X         444@@@@@rrrrrrr8",
"8r$rrrrrrrrrr@@eee 99944444    <<:23322  <<    %%444@@499rrrrrr8",
"8$$rrrrrrrrrr@@ee@  44224 3    <:23=3:<1 <22   9%4444@444rrrrrr8",
"8$$rrrrrrrrr<@@@@      22   2  <23===3;<  2%%   %4444@@@8888rrr8",
"8$$r888888222+@@@        < 3  2<<==&==:< %2%%%   4444@@@www8<rr8",
"$$rr8wrrrrww222@@           3  2,3===32< %2%%99  224@@@@rr<<rr$$",
"$$rr8wrrrrrw8r@@@  eeeeeeee    :<23=31<< %%%999222  @@@@r228r$$$",
"$$rr8wrrrrrr8r@eeeeeeeeeeeee#   2::-2<<    %9  2    @@@@2248r$$8",
"$rrr8wrrrrrr8eeeeeeeeeeqqeeee     212**    %% <      @@@2r48$$$8",
"$rrr8wrrrrrreeeeeeeeeeeeqqeee  32    e55e2e   <      @eeer4$$$r8",
"$rrr8wrrrrreeeeeeeeeeeeeeqeee  3   eeeeeeeee         @eeewr$$$r8",
"8rrr8wwwwwwe8eeeeeeeeeeeeqeee     eeeee2eeeeee%      ####8$$$$r8",
"8rrr8888888e8eeeeeeeeeeeeqqee2### eeeeeeeeeeee%%%%%% @@@@r$$$rr8",
"8rrrrrrrrrreeeeeeeeeeeeeeeqe#####eeeeeeeeeeeeee%%%%%%%##@#$$rrr8",
"8rrrrrrrrrrreeeeeeeeeeeeeeqe#####eeeeeeeeeeeeee%%%%%%%####$$rrr8",
"8rrrrrrrrrrreeeeeeeeeeeeeee######eeeeeeeeeeeeee%%%%55#####$$8888",
"8888888888888eeeeeeeeeeeeee######eeeeeeeeeeeeee%555e554##r$errr8",
"8rrrrrrrrrrrr@eeeeeeeeeeee4#####eeeeeeeeeeeeeee55eeeee44#reerrr8",
"8rrrrrrrrrrr@%%eeeeeeeeee4455555eeeeeeeeeeeeeee5eeeeeee4@reerrr8",
"8rrrrrrrrrr%%%%%%e4eeeee445555555eeqeeeeeeeeeee5eeeeeee4@$$$rrr8",
"8rrr8888888%%%%%%%%44444%%5555555eeqqeeeeeeeeee54eeeeee4@$$$rrr8",
"8rrr8wrrrrr%%%%%%%%%4444%55555555eeeqqqqqeeeee554eeeeee5@$$$rrr8",
"8rrr8wrrrrr%%%%%%%%%%%%%%55555555eeeeeeeeeeee55544eeeee5r$$$rrr8",
"8rrr8$rrrr@%%%%%%4eeeeeee@555555###eeeeeeeee%555544eee55$$$$rrr8",
"8rrr8$rrrr@@%%%444eeeeeeee55555#####%%%%%%%%%5555545ee5@$$$$rrr8",
"8rrr8$rrr@@@@%44eeeeeeeeeeee555#####%%%%%%%e%eeeee4455@@$$$$rrr8",
"8rrr8$www@@@eeeeeeeeqqqqeeee#######%%%%%%%eeeeeeeeee@@@@$$$wrrr8",
"8rrr$$888@@eeeeeeeeeeeeqqeeee###555%5%%%eeeeeeeeqqqee@@@rrrrrrr8",
"8rr$$$rrr@@eeeeeeeeeeeeeqqeee##5555555%%eeeeeeeeeeqqee@@rrrrrrr8",
"8r$$$rrr@@@eeeeeeeeeeeeeeqqee##55555555eeeeeeeeeeeeqee@@rrrrrrr8",
"8r$$$rrr@@eeeeeeeeeeeeeeeeqee%555555555eeeeeeeeeeeeqeee@@8888888",
"88$$$$88@@4eeeeeeeeeeeeeeeqee%%55555555eeeeeeeeeeeeeeee@@rrrrrr8",
"8$$$$$$r@@4eeeeeeeeeeeeeeeqee%%55555555444eeeeeeeeeeeee##rrrrrr8",
"8$$$$$$$@@44eeeeeeeeeeeeeeeee%5555555554444eeeeeeeeeeee###rrrrr8",
"$$$$$$$$@@444eeeeeeeeeeeeeeee%55555555444444eeeeeeeeeee####8rrr8",
"$$$$$$$$@@4444444eeeeeeeeeee%%%5555555444444eeeeeeeeee#####8rrr8"
};
