/* XPM */
static char *door[] = {
/* columns rows colors chars-per-pixel */
"64 64 18 1 ",
"  c #455C1D",
". c #526B24",
"X c #5A7829",
"o c #627D28",
"O c #464646",
"+ c #5C565C",
"@ c #5E595E",
"# c gray49",
"$ c #7C911C",
"% c #818C8C",
"& c #999699",
"* c #909999",
"= c #A3A2A3",
"- c #B8A5B8",
"; c #ABBABA",
": c gray70",
"> c #B4B4B4",
", c gray79",
/* pixels */
"oo..ooooooo.oooooooooo.ooooooooo$.ooooooooo-o.$oo o      .  $oo.",
"oo.oooooooo.oo-oooooooo$oooooo..$ooooooooo-$-.oooooo       o$oo$",
"oo...oooooo.o-$-ooooooo..ooooo.oooooooooooo-o.ooooooooooo.oooo$$",
"oooo.ooooooo.o-ooooooooo.ooooo.oooooooooooooooooooooooooooooo.$o",
"oooo$ooooooo.o*o.oooo*o.oooo*o*o*oo*ooooo*o.o...oooooo.ooooo..oo",
"oo*o$o*o.oo.oo*o.oooo*..oo*o*o*o.o**o*ooooo.ooo.ooooo..oooo..ooo",
"oo*oo**o.oo.oooo.ooo*..o*oo*oo+++..*oooo*ooo.o.o.oooo$ooooo.oooo",
".**oo**o.oo..**o..*oo.oo*.o*O+++++.ooo.o*o*o.o....ooooooooo.oooo",
".**.o*oo.ooo.**oo.oo*.ooo.OO+++++++ooo.o**o..oo.ooo.oooooooooooo",
".*..o*oo..oo..*ooo.*o*oOOOOO+++++++OOOOOOOo.o**o.oo.o*o*ooooo.oo",
".*.o*o*oo.o**...o**o*###OOO++++++++O#####OOOOooo.oo.o*o*oo.**..o",
"o*ooooo*oo.***o..**o######O++++++++######OOOOO**o.*o**o..o.*oo..",
"ooo..*o*ooo***oo.*o#######O++++++++######>>>>>>>oo*o***o.oo*o**.",
"*$o.*o**ooo*o.oo..#########+++>>>>>######>>>>>>>>*Xo***o..o*o**.",
"*$oo*o**o.oo*.*oo*########>>>>>>>>>>>>##>>>>>>>>>*X*****o.ooX**.",
"*o*oo*o*.oo$o*.ooo#######>>>>>>>>>>>>>##>>>>>>>>>>o*******$oX**o",
"***o*$o..o.$*..oo.######>>>>>>>>>;;;;>>#%>>>>>>>>>Oo******$*o*$o",
"******ooo..o*o**o######>>>>>>>>>>>>>;>>#%%>>>>>;>>OO$*****o**o$*",
"******oo*.***o***#####>>>>>>>>>>>>>>;;>>>%>>>>>;>>##O********oo*",
"*****.o$*****o**O#####>>>>>>>>>>>>>>>;>>&%>>>>;;>>###O**********",
"*****.o$****$o**OO####>>>>>>>>>>>>>>>;>>&>%>>>>>>####O*********@",
"*****oo****o*o*>>>>>>>>>>>>>>>>>>>>>>;>>&&>%%>>+++####O*********",
"*****$o****o*o>>>>>>>>>>>>>>>>>>>>>>>>>>&&&#++++++####O*********",
"*****$o******>>>>>>>>>>>>>>>>>>>>>>>>>>>&&&#+++>>>>>#OOO********",
"*****o*******>>>>>>>>>>%>>>>>>>>>>>>>>>###&#++>>>>>>>OOO********",
"****@o******>>>>>>>>>>>%%>>>>>>>>>>>>>#######>>>>>>>>>OO********",
"****@*******>>>;>>>>>%O>%>>>>>>>>>>>>>#######>>>>>>>>>OO********",
"***@@*******>>>;;>>>%%&&%%>>>>>>>>>>>>######>>>>>>>>>>>O========",
"==@@=========>>>;;>%&&&&&%%>>>>>>>>>>>######>>>>>>>>>>>O,,,,,,,=",
"=,@,,,,,,,,,,O>>>>%&&&&&&&%%>>>>>>>&&&&&###O>>>>>>>>>>>O,,,,,,,=",
"=@@,,,,,,,,,,OO++++&&&&&&&>%%%>>>&&&&&&&##+>>>>>>>>>>>>>,,,,,,,=",
"=@@,,,,,,,,,,O+++++&&&&&&&OO>>>>>&&&&&&&&++>>>>>>>>>>>%>====,,,=",
"=@@,=========o+++++&&&&&&&OOOO++++&&&&&&&++>>>>>>>>>>>%%:::=,,,=",
"@@,,=:,,,,::=,+++++O&&&&OOOO++++++&&&&&&&+++>>>>>>>>>>>%,,:=,,@@",
"@@,,=:,,,,,:=,O++++>>>>>>>>O++++++&&&&&&&+++>>>;>>>>>>%%,,:=,@@@",
"@@,,=:,,,,,,=,O>>>>>>>>>>>>>++++++&&&&&&+++++>>;;;;>>>%OO,,=,@@=",
"@,,,=:,,,,,,=>>>>>>>>>>;;>>>>+++++O&&&&++++++#>>>>>>%%%OO,,=@@@=",
"@,,,=:,,,,,,>>>>>>>>>>>>;;>>>++++OO>>>&&>>>+###>>%%%%OOOO,,@@@,=",
"@,,,=:,,,,,>>>>>>>>>>>>>>;>>>++++OO>>>>>>>>>####%%####OOO:,@@@,=",
"=,,,=::::::>=>>>>>>>>>>>>;>>>OOOOO>>>>>>>>>>>>#######++++=@@@@,=",
"=,,,=======>=>>>>>>>>>>>>;;>>++++O>>>>>>>>>>>>########+++,@@@,,=",
"=,,,,,,,,,,>>>>>>>>>>>>>>>;>+++++>>>>>>>>>>>>>>#######++++@@,,,=",
"=,,,,,,,,,,,>>>>>>>>>>>>>>;>+++++>>>>>>>>>>>>>>#######++++@@,,,=",
"=,,,,,,,,,,,>>>>>>>>>>>>>>>++++++>>>>>>>>>>>>>>####&&+++++@@====",
"=============>>>>>>>>>>>>>>++++++>>>>>>>>>>>>>>#&&&>&&%++,@@,,,=",
"=,,,,,,,,,,,,O>>>>>>>>>>>>%+++++>>>>>>>>>>>>>>>&&>>>>>%%+,@@,,,=",
"=,,,,,,,,,,,O##>>>>>>>>>>%%&&&&&>>>>>>>>>>>>>>>&>>>>>>>%O,@@,,,=",
"=,,,,,,,,,,######>%>>>>>%%&&&&&&&>>;>>>>>>>>>>>&>>>>>>>%O@@@,,,=",
"=,,,=======########%%%%%##&&&&&&&>>;;>>>>>>>>>>&%>>>>>>%O@@@,,,=",
"=,,,=:,,,,,#########%%%%#&&&&&&&&>>>;;;;;>>>>>&&%>>>>>>&O@@@,,,=",
"=,,,=:,,,,,##############&&&&&&&&>>>>>>>>>>>>&&&%%>>>>>&,@@@,,,=",
"=,,,=@,,,,O######%>>>>>>>O&&&&&&+++>>>>>>>>>#&&&&%%>>>&&@@@@,,,=",
"=,,,=@,,,,OO###%%%>>>>>>>>&&&&&+++++#########&&&&&%&>>&O@@@@,,,=",
"=,,,=@,,,OOOO#%%>>>>>>>>>>>>&&&+++++#######>#>>>>>%%&&OO@@@@,,,=",
"=,,,=@:::OOO>>>>>>>>;;;;>>>>+++++++#######>>>>>>>>>>OOOO@@@:,,,=",
"=,,,@@===OO>>>>>>>>>>>>;;>>>>+++&&&#&###>>>>>>>>;;;>>OOO,,,,,,,=",
"=,,@@@,,,OO>>>>>>>>>>>>>;;>>>++&&&&&&&##>>>>>>>>>>;;>>OO,,,,,,,=",
"=,@@@,,,OOO>>>>>>>>>>>>>>;;>>++&&&&&&&&>>>>>>>>>>>>;>>OO,,,,,,,=",
"=,@@@,,,OO>>>>>>>>>>>>>>>>;>>#&&&&&&&&&>>>>>>>>>>>>;>>>OO=======",
"==@@@@==OO%>>>>>>>>>>>>>>>;>>##&&&&&&&&>>>>>>>>>>>>>>>>OO,,,,,,=",
"=@@@@@@,OO%>>>>>>>>>>>>>>>;>>##&&&&&&&&%%%>>>>>>>>>>>>>++,,,,,,=",
"=@@@@@@@OO%%>>>>>>>>>>>>>>>>>#&&&&&&&&&%%%%>>>>>>>>>>>>+++,,,,,=",
"@@@@@@@@OO%%%>>>>>>>>>>>>>>>>#&&&&&&&&%%%%%%>>>>>>>>>>>++++=,,,=",
"@@@@@@@@OO%%%%%%%>>>>>>>>>>>###&&&&&&&%%%%%%>>>>>>>>>>+++++=,,,="
};
