/* XPM */
static char *east[] = {
/* columns rows colors chars-per-pixel */
"64 64 49 1 ",
"  c #612B23",
". c #2C6111",
"X c #146969",
"o c #5E595E",
"O c #786F78",
"+ c #912817",
"@ c #FA3C11",
"# c #C92634",
"$ c #BF6D15",
"% c #0F966C",
"& c #64995A",
"* c #5FA371",
"= c #53C268",
"- c #66D968",
"; c #A8A118",
": c #BFB719",
"> c #DE8423",
", c #E0B122",
"< c #87DE23",
"1 c #E0D722",
"2 c #D18C54",
"3 c #C2B542",
"4 c #D18979",
"5 c #97D667",
"6 c #ADE069",
"7 c #236CB0",
"8 c #2438ED",
"9 c #8D1DA3",
"0 c #CC1FBE",
"q c #23B088",
"w c #31B6D4",
"e c #34BDE3",
"r c #74AFE3",
"t c #38E0E0",
"y c #8E9999",
"u c #8F9A9A",
"i c #909898",
"p c #909999",
"a c #909A9A",
"s c #BFBF9D",
"d c #A3A2A3",
"f c #ABBABA",
"g c gray70",
"h c #D4A09B",
"j c #B1E6BA",
"k c #FFD699",
"l c #C7E899",
"z c #B5DDE6",
"x c gray79",
/* pixels */
"pppppppfppppppppppppppppfppppppppppppppppfppppppppppppppppfppppp",
"ppppppfpfppppppppppppppfpfppppppppppppppfpfppppppppppppppfpfpppp",
"ppppffpppfppppppppppppfpppfppppppppppppfpppfppppppppppppfpppfppp",
"pppffpppppffppppppppffpppppffppppppppffpppppffppppppppffpppppffp",
"fffpppppppppffppppffpppppppppfOOOOpffpppppppppffppppffpppppppppf",
"ppppppppppppppffffpppppppppppOffffOpppppppppppppffffpppppppppppp",
"ppppppppppssspppppppppppppppOff@@ffOpppppppppppppppssspppppppppp",
"pppppppppspppspppppppppppppOff@@@@ffOpppppppppppppspppsppppppppp",
"ppppppppspp:ppspppppppppppOff @@@@+ffOpppppppppppspp:ppspppppppp",
"pppppppspp:::ppspppppppppOff,,@@@@++ffOpppppppppspp:::ppsppppppp",
"ppppppspp::3::ppsppppppppOff,,,hhh++ffOppppppppspp::3::ppspppppp",
"pppppspp::::;::ppspppppppOf44,,hhh,+,fOpppppppspp::::;::ppsppppp",
"ppppspp::::::;::ppspppppOff44hhhhh,,,ffOpppppspp::::::;::ppspppp",
"pppspp:::::::::::ppsppppOf444hh##hh,,,fOppppspp:::::::::::ppsppp",
"pppspppppppppppppppspppOff4hhh####hh>>ffOpppspppppppppppppppsppp",
"ppppsssssssssssssssppppOf>>h#h#22#h#h44fOppppssssssssssssssspppp",
"ppppppppppppppppppppppOf>>+h2##22##2h444fOpppppppppppppppppppppp",
"ppppppppppOOOpppppppppOf,++h9h2222h9h444fOpppppppppOOOpppppppppp",
"pppppppppOfffOpppppppOff,,hh9hh22hh9h444ffOpppppppOfffOppppppppp",
"ppppppppOfftffOppppppOf,,,hh90222209hhh44fOppppppOff-ffOpppppppp",
"pppppppOfftttffOpppppOf444hhh991199hhhh++fOpppppOff---ffOppppppp",
"ppppppOffrtttqffOppppOf444hhhh9999hhhhh++fOppppOff.---%ffOpppppp",
"pppppOffrrtttqqffOpppOf44+hhhh0990hhhh+++fOpppOff..---%%ffOppppp",
"pppppOfqrrzzzqXXfOpppOf++++hh099990hhh++,fOpppOf*..jjj%%%fOppppp",
"ppppOffqqzzzzXXXffOppOf+++++444444$$$,,,,fOppOff*.jjjj%..ffOpppp",
"ppppOfqqqzzzzzzXXfOppOf+++++44444+++$$ , fOppOf***jjjjjj..fOpppp",
"pppOffqqzzwwwzzXXffOpOf++++44444++++$$$  fOpOff5*j&&j&&j..ffOppp",
"pppOf777zwwkwwzz77fOpOffffffffffffffffffffOpOf55*j&&&&&j..5fOppp",
"ppOfqq7zzwkkkwzz777fOOOOOOOOOOOOOOOOOOOOOOOOf555jjj&k&jjj.55fOpp",
"ppOfqq7zzwkkkwkzz7qfOppppppppppppppppppppppOf555jj&kkk&jj555fOpp",
"pOffqXzzzzzkzz8zzqqffOpppsssssssssssssssppOff%%%jkjkkkjjjj55ffOp",
"pOfXXXzzzekkke8zzqqqfOppsyppppppppppppppspOf.%%jj<jjkjjjjj...fOp",
"dOfXXXzz888188zzzrqqfOppspp:::::::::::ppspOf.%%jj<=kkk=jjj...fOp",
"dOfXXXzz8z888zzzzrrrfOppyspp::;::::::ppsppOf.%%jjj<<1<<<jjj..fOp",
"dOfrrrrzkze8ezzzrrrrfOppppspp::;::::ppspppOf..%%jjj=<=l<jj..*fOp",
"dOf7rrqqqq777rrrrXXXfOpppppspp::3::ppsppppOf.....**%%%%%6****fOp",
"dOf7rqqqqqq777rXXXXXfOppppppspp:::ppspppppOf.....****%%%6555*fOp",
"oOf7rqqqqqq777XXXXXXfOpppppppspp:ppsppppppOf.....****%666555*fOo",
"oOfffffffffffffffffffOppppppppspppspppppppOfffffffffffffffffffOo",
"oOOOOOOOOOOOOOOOOOOOOOpppppppppsssppppppppOOOOOOOOOOOOOOOOOOOOOO",
"oppppppppppppppppppppppppppppppppppppppppppppppppppppppppppppppp",
"oppppppppppppppppppppppppppppppppppppppppppppppppppppppppppppppp",
"oppppppppppppppppppppppppppppppppppppppppppppppppppppppppppppppp",
"pppppppppppppppppppppppppppppppppppppppppppppppddddddddddddddddd",
"dddddddddddddddddppppppppppppppdddddddddddddddddxxxxxxxxxxxxxxxd",
"dxxxxxxxxxxxxxxxdddddddddoddddddxxxxxxxxxxxxxxxdxxxxxxxxxxxxxxxd",
"dxxxxxxxxxxxxxxxdxxxxxxxxxxxxxxdxxxxxxxxxxxxxxxdxxxxxxxxxxxxxxxd",
"dxxxxxxxxxxxxxxxdxxxxxxxxxxxxxxdxxxxxxxxxxxxxxxdxxxdddpddoodxxxd",
"dxxxdddddddddxxxdxxxxxxxxxxxxxxdxxxdddddddddxxxdxxxdxxxxxxxdxxxd",
"dxxxdgxxxxxgdxxxdxxxddddddoxxxxdxxxdxxxxxxxdxxxdxxxdxxxxxxxdxxxd",
"dxxxdgxxxxxxdxxxdxxxdxxxgggoxxxdxxxdgxxxxxxdxxxdxxxdgxxxxxxdxxxd",
"dxxxdxxxxxxxdxxxdxxxdxxxxxgoxxxdxxxdgxxxxxxdxxxdxxxdgxxxxxxdxxxd",
"dxxxdxxxxxxxdxxxdxxxdgxxxxxoxxxdxxxdgxxxxxxdxxxdxxxdgxxxxxxdxxxd",
"dxxxdxxxxxxxdxxxdxxxdgxxxxxdxxxdxxxdgxxxxxxdxxxdxxxdgxxxxxxdxxxd",
"dxxxdxggggggdxxxdxxxdgxxxxxdxxxdxxxdgggggggdxxxdxxxddddoooodxxxd",
"dxxxoodddddddxxxdxxxdgggggxdxxxdxxxdddddddddxxxdxxxxxxxxxxxxxxxd",
"dxxxxxxxxxxxxxxxdxxxddddddddxxxoxxxxxxxxxxxxxxxdxxxxxxxxxxxxxxxd",
"dxxxxxxxxxxxxxxxdxxxxxxxxxxxxxxoxxxxxxxxxxxxxxxdxxxxxxxxxxxxxxxd",
"dxxxxxxxxxxxxxxxdxxxxxxxxxxxxxxoxxxxxxxxxxxxxxxddddddddddddddddd",
"ddoooodddddddddddxxxxxxxxxxxxxxddoooddddddddddddxxxxxxxxxxxxxxxd",
"dxxxxxxxxxxxxxxxddddddddddddddddxxxxxxxxxxxxxxxdxxxxxxxxxxxxxxxd",
"dxxxxxxxxxxxxxxxdxxxxxxxxxxxxxxdxxxxxxxxxxxxxxxdxxxxxxxxxxxxxxxd",
"oxxxxxxxxxxxxxxxdxxxxxxxxxxxxxxdxxxxxxxxxxxxxxxdxxxdddddddddxxxd",
"oooooooooggggxxxdxxxddddddddxxxdxxxdddooodddxxxddxxdxxxxxggdxxxd"
};
