/* XPM */
static const char *ffloor[] = {
/* columns rows colors chars-per-pixel */
"32 32 3 1 ",
"  c #522715",
". c #7D422A",
"X c #9C5A3C",
/* pixels */
"X.XXXX XXX.XXX X.XXXXX X.XXXXX X",
"X.XXXX XXX.XXX X.XXXXX X.XX..X X",
"X.XXX XXX..XX XX.XXXX XX.XX.X XX",
"X..XX XX.XXXX XX.XXXX XX.XXXX X.",
"XX.XX XX.XXXX XX.X..X XX.XXXX X.",
"XXXXX X..XXXX XX.XX.X XXXXXXX XX",
"XXXXX X.XXXXX XXXXX.X XXXXXXX XX",
"XXXXX  .XXX.X  XXXX.X  XXXXXX  X",
"XX.XXX XXXX.XX XXXX.XX XX.XXXX X",
"XX.XXX XXXX.XX XXXX.XX XX.XX.X X",
"XX..XX XXXX.XX XXXX.XX XX.XX.X X",
"XXX.XX XXXX.XX XX.X.XX XX.XX.X X",
"XXX.XX XXXX.XX XX.XXXX XX.XXXX X",
"XXX.XX XXXXXXX XX.XXXX XX..XXX X",
"XXX.XX XX.XXXX XX.XXXX XXX.XXX X",
"XXX.XX XX.XXXX XX.XXXX XXX.XXX X",
"XXXXXX XX.XXXX XXXXXXX XXX.XXX X",
"XXXXX. XX.XXXX XXXXXXX XXXXXXX X",
"XXXXX. XX..XXX XX.XXXX XXXXXXX X",
"XX.XX. XXXXXXX XX..XXX XXXXXXX X",
"XX.XX. XXXXXXX XXXXXXX XX.XXXX X",
"XX.XX. XXXXX.X XXXXX.X XX..XXX X",
"XX.XXX  XXXX.X  XXXX..  XX.XXX  ",
"XX.XXXX X.XX.XX XXXXX.X XX.XXXX ",
"XX.XXXX X.XX.XX XXXXX.X XX.XXXX ",
"XXXXXXX X.XX.XX XXXXXXX XX.XX.X ",
"XXXXXXX X..X..X XX.XXXX XXXXX.X ",
"XXX...X XX.XX.X XX.XXXX XXXXX.X ",
"XXXXX.X XX.XXXX XX.XXXX XXXXX.X ",
"XXXXXXX X..XXXX XX..XXX XXXX..X ",
"XXXXXXX XXXXXXX XXX.XXX XXXX.XX ",
"XXXXXXX XXXXXXX XXX.XXX XXXX.XX "
};
