/* XPM */
static char *sword[] = {
/* columns rows colors chars-per-pixel */
"32 32 9 1 ",
"  c None",
". c #4A4516",
"X c #574018",
"o c #6B481E",
"O c #666027",
"+ c #786F23",
"@ c gray55",
"# c #B8BAB3",
"$ c #D1D1CD",
/* pixels */
"                                ",
"                                ",
"                                ",
"                          #     ",
"                         ##     ",
"                         ##     ",
"                         #$     ",
"                        ##$     ",
"                        ###     ",
"                        ###     ",
"                        ###     ",
"                        ###     ",
"                       $###     ",
"                       #$##     ",
"                       ####     ",
"                       ###      ",
"                     + ###      ",
"                      +### O    ",
"                      O### O    ",
"                      #OOOO     ",
"                      +O##      ",
"                     +@@O#      ",
"                     O@##O      ",
"                     #O#+       ",
"                   XX@OO@       ",
"                   XOO##+ OX    ",
"                   OXX@# + X    ",
"                     oXXX+X     ",
"                    XoX.XXX     ",
"                    ..X..       ",
"                    X.XXo       ",
"                    XoX..       "
};
