/* XPM */
static char *sword_hit2[] = {
/* columns rows colors chars-per-pixel */
"32 32 21 1 ",
"  c #000000",
". c #563F18",
"X c #573F18",
"o c #4A4516",
"O c #584017",
"+ c #584117",
"@ c #564018",
"# c #574018",
"$ c #574219",
"% c #6B481E",
"& c #666027",
"* c #676029",
"= c #686028",
"- c #786F23",
"; c gray55",
": c #B9B9B1",
"> c #B8BAB3",
", c #B8BBB3",
"< c #D1D1CD",
"1 c gray92",
"2 c white",
/* pixels */
"            2222222 2           ",
"         2222211222222          ",
"        2212 2 222              ",
"       2112 22222               ",
"      222211222                 ",
"    22212 122                   ",
"   222222122                    ",
"  222122122                     ",
"  2212 122                      ",
" 2212 2122                      ",
" 2212 122                       ",
" 222 2122                       ",
"222 2 122                       ",
"222222122                       ",
"22>>>2222                       ",
"  >>>>>222                      ",
"   >>>>>22                      ",
"    >>>>>>>                     ",
"      >>>>>>>                   ",
"        >>>>>>  &=              ",
"          ><>>>  &              ",
"          <>>>>>>&              ",
"            >>>>>&>    XO       ",
"              >>&>>>&  ##       ",
"             --&&&&>-  & #      ",
"                >-;>>;---#      ",
"                 -;&&&> ##      ",
"                  &>&>;#o#o     ",
"                    ;&;##o#o    ",
"                   #&#%%###o%   ",
"                   X#& #oo%#O   ",
"                    *   o#%##   "
};
