/* XPM */
static char *sword_hit1[] = {
/* columns rows colors chars-per-pixel */
"32 32 19 1 ",
"  c #000000",
". c #573F18",
"X c #4A4516",
"o c #574017",
"O c #584017",
"+ c #564018",
"@ c #574018",
"# c #574019",
"$ c #6B461D",
"% c #6B481E",
"& c #665F27",
"* c #646026",
"= c #656026",
"- c #666027",
"; c #786F23",
": c gray55",
"> c #B8BAB3",
", c #D1D1CD",
"< c white",
/* pixels */
"                <<<<<<          ",
"             <<<<  <            ",
"            <<<< <<<            ",
"            <<< <<              ",
"             >><<<              ",
"             >>><<              ",
"              >>>               ",
"               >,,              ",
"               >>,              ",
"               >>>>             ",
"                >>>>            ",
"                 >>>            ",
"                 >>>>           ",
"                  >>>>          ",
"                  >,>>          ",
"                  >>>>  -       ",
"                   >>>> &-      ",
"                    >>> -       ",
"                  ;;>>>--       ",
"                    --->>       ",
"                     >-->>      ",
"                     ;::>>>     ",
"                     ;:>;;>>.@  ",
"                     ----:>> o  ",
"                      >-->>;@   ",
"                     @@->>>@@@  ",
"                     @--@@@@@   ",
"                     O-@%@@XX   ",
"                        @%@X@X  ",
"                        @XX@XX  ",
"                         @X%@   ",
"                          @$    "
};
