/* XPM */
static const char *w_horizontal[] = {
/* columns rows colors chars-per-pixel */
"32 32 2 1 ",
"  c #522715",
". c #7D422A",
/* pixels */
"................................",
"................................",
" ..   ....  ...  ...  ....   .. ",
"                                ",
"                                ",
"                                ",
" ..   ....  ...  ...  ....   .. ",
"................................",
"..                            ..",
".                              .",
"                                ",
"                                ",
"                                ",
"                                ",
"                                ",
"                                ",
"                                ",
"                                ",
"                                ",
"                                ",
"                                ",
"                                ",
".                              .",
"..                            ..",
"................................",
" ..   ....  ...  ...  ....   .. ",
"                                ",
"                                ",
"                                ",
" ..   ....  ...  ...  ....   .. ",
"................................",
"................................"
};
